assets/img/braze_icons/bank.svg

<svg fill="none" height="24" viewBox="0 0 24 24" width="24" xmlns="http://www.w3.org/2000/svg"><path clip-rule="evenodd" d="m11.8253 2.03206c.1162-.01019.2332-.01019.3494 0 .1337.01173.2613.04026.3625.06291l7.4535 1.65636c.2004.04451.3996.08876.568.13938.188.0565.402.1386.6104.28875.2943.21205.5255.50018.6686.83352.1014.23602.1351.46267.1495.65844.0129.1754.0128.37948.0128.58478v1.17585c0 .2523.0001.49811-.0169.7062-.0187.22859-.0628.49833-.2011.76975-.1917.37632-.4977.68229-.874.87403-.2714.1383-.5412.18237-.7698.20104-.0444.00364-.0906.00649-.1382.00874v6.01639c.0476.0023.0938.0051.1382.0088.2286.0186.4984.0627.7698.201.3763.1917.6823.4977.874.874.1383.2714.1824.5412.2011.7698.017.208.0169.4539.0169.7062v.8641c0 .2523.0001.4981-.0169.7061-.0187.2286-.0628.4984-.2011.7698-.1917.3763-.4977.6823-.874.874-.2714.1383-.5412.1824-.7698.2011-.2081.017-.4539.0169-.7063.0169h-14.86379c-.25239 0-.49818.0001-.70633-.0169-.2286-.0187-.49833-.0628-.76976-.2011-.37632-.1917-.68228-.4977-.87403-.874-.1383-.2714-.18236-.5412-.20104-.7698-.01701-.2081-.01698-.4539-.01695-.7063v-.8638c-.00003-.2524-.00006-.4982.01695-.7063.01868-.2286.06274-.4984.20104-.7698.19175-.3763.49771-.6823.87403-.874.27143-.1383.54116-.1824.76976-.201.04445-.0037.09063-.0065.13822-.0088v-6.01639c-.04759-.00225-.09377-.0051-.13822-.00874-.2286-.01867-.49833-.06274-.76976-.20104-.37632-.19174-.68228-.49771-.87403-.87403-.1383-.27142-.18236-.54116-.20104-.76975-.01701-.20816-.01698-.45396-.01695-.70634v-1.17572c-.00002-.20529-.00005-.40937.01284-.58478.01437-.19576.0481-.42241.14946-.65843.14316-.33334.37429-.62147.66863-.83353.20842-.15014.42235-.23224.61033-.28874.16844-.05063.36766-.09487.56808-.13938l7.45346-1.65636c.1013-.02265.2288-.05118.3625-.06291zm-5.8253 7.96794v6h2.5v-6zm4.5 0v6h3v-6zm5 0v6h2.5v-6z" fill="#801ed7" fill-rule="evenodd"/></svg>

<svg width="24" height="24" viewBox="0 0 24 24" fill="none" xmlns="http://www.w3.org/2000/svg">
<path fill-rule="evenodd" clip-rule="evenodd" d="M11.8253 2.03206C11.9415 2.02187 12.0585 2.02187 12.1747 2.03206C12.3084 2.04379 12.436 2.07232 12.5372 2.09497L19.9907 3.75133C20.1911 3.79584 20.3903 3.84009 20.5587 3.89071C20.7467 3.94721 20.9607 4.02931 21.1691 4.17946C21.4634 4.39151 21.6946 4.67964 21.8377 5.01298C21.9391 5.249 21.9728 5.47565 21.9872 5.67142C22.0001 5.84682 22 6.0509 22 6.2562V7.43205C22 7.68435 22.0001 7.93016 21.9831 8.13825C21.9644 8.36684 21.9203 8.63658 21.782 8.908C21.5903 9.28432 21.2843 9.59029 20.908 9.78203C20.6366 9.92033 20.3668 9.9644 20.1382 9.98307C20.0938 9.98671 20.0476 9.98956 20 9.99181V16.0082C20.0476 16.0105 20.0938 16.0133 20.1382 16.017C20.3668 16.0356 20.6366 16.0797 20.908 16.218C21.2843 16.4097 21.5903 16.7157 21.782 17.092C21.9203 17.3634 21.9644 17.6332 21.9831 17.8618C22.0001 18.0698 22 18.3157 22 18.568V19.4321C22 19.6844 22.0001 19.9302 21.9831 20.1382C21.9644 20.3668 21.9203 20.6366 21.782 20.908C21.5903 21.2843 21.2843 21.5903 20.908 21.782C20.6366 21.9203 20.3668 21.9644 20.1382 21.9831C19.9301 22.0001 19.6843 22 19.4319 22H4.56811C4.31572 22 4.06993 22.0001 3.86178 21.9831C3.63318 21.9644 3.36345 21.9203 3.09202 21.782C2.7157 21.5903 2.40974 21.2843 2.21799 20.908C2.07969 20.6366 2.03563 20.3668 2.01695 20.1382C1.99994 19.9301 1.99997 19.6843 2 19.4319L2 18.5681C1.99997 18.3157 1.99994 18.0699 2.01695 17.8618C2.03563 17.6332 2.07969 17.3634 2.21799 17.092C2.40974 16.7157 2.7157 16.4097 3.09202 16.218C3.36345 16.0797 3.63318 16.0356 3.86178 16.017C3.90623 16.0133 3.95241 16.0105 4 16.0082V9.99181C3.95241 9.98956 3.90623 9.98671 3.86178 9.98307C3.63318 9.9644 3.36345 9.92033 3.09202 9.78203C2.7157 9.59029 2.40974 9.28432 2.21799 8.908C2.07969 8.63658 2.03563 8.36684 2.01695 8.13825C1.99994 7.93009 1.99997 7.68429 2 7.43191L2 6.25619C1.99998 6.0509 1.99995 5.84682 2.01284 5.67141C2.02721 5.47565 2.06094 5.249 2.1623 5.01298C2.30546 4.67964 2.53659 4.39151 2.83093 4.17945C3.03935 4.02931 3.25328 3.94721 3.44126 3.89071C3.6097 3.84008 3.80892 3.79584 4.00934 3.75133L11.4628 2.09497C11.5641 2.07232 11.6916 2.04379 11.8253 2.03206ZM6 10V16H8.5V10H6ZM10.5 10V16H13.5V10L10.5 10ZM15.5 10V16H18V10H15.5Z" fill="#801ED7"/>
</svg>
